Sources/FrostedUI/Resources/Icons.xcassets/micOff24.imageset/mic-off-24.svg

<svg width="24" height="24" viewBox="0 0 24 24" fill="none" xmlns="http://www.w3.org/2000/svg" data-fui-icon="true">
  <path
    d="M2.09473 2.09473C2.38762 1.80186 2.86239 1.80184 3.15527 2.09473L21.9053 20.8447C22.1981 21.1376 22.1981 21.6124 21.9053 21.9053C21.6124 22.1982 21.1376 22.1981 20.8447 21.9053L17.7092 18.7697C17.5817 18.6422 17.3818 18.6242 17.2297 18.7212C16.0095 19.4997 14.6057 20.0159 13.096 20.1852C12.9012 20.2071 12.75 20.3692 12.75 20.5653V21.375C12.75 21.7891 12.414 22.1248 12 22.125C11.5859 22.1248 11.25 21.7891 11.25 21.375V20.5653C11.25 20.3692 11.0984 20.207 10.9036 20.1852C6.03521 19.6402 2.25 15.5139 2.25 10.5C2.25 10.0859 2.58594 9.75019 3 9.75C3.41403 9.75021 3.75 10.0859 3.75 10.5C3.75 15.0562 7.44381 18.7498 12 18.75C13.4551 18.7499 14.8216 18.3721 16.0081 17.7102C16.2178 17.5932 16.249 17.3095 16.0792 17.1397L14.9581 16.0187C14.8424 15.9029 14.6654 15.8767 14.5169 15.9456C13.7516 16.3006 12.8992 16.4999 12 16.5C8.78995 16.4998 6.16843 13.9788 6.00781 10.8086L6 10.5V7.5C6 7.41519 6.00205 7.33081 6.00578 7.24687C6.0106 7.13837 5.97152 7.03206 5.89472 6.95526L2.09473 3.15527C1.80183 2.86238 1.80183 2.38762 2.09473 2.09473ZM21 9.75C21.414 9.75021 21.75 10.0859 21.75 10.5C21.75 12.6123 21.0772 14.5663 19.9354 16.1621C19.8044 16.3451 19.5414 16.3607 19.3822 16.2016L18.8428 15.6622C18.7111 15.5304 18.6968 15.3224 18.8024 15.1688C19.7155 13.8412 20.25 12.233 20.25 10.5C20.25 10.0859 20.5859 9.75019 21 9.75ZM7.5 10.5C7.5 12.9852 9.51488 14.9998 12 15C12.3746 15 12.7385 14.9538 13.0863 14.8673C13.3489 14.8019 13.4183 14.4789 13.227 14.2876L8.14017 9.20071C7.90393 8.96448 7.5 9.13179 7.5 9.46588V10.5ZM12 1.5C15.3135 1.50021 18 4.18642 18 7.5V10.5C18 11.5632 17.7223 12.561 17.2369 13.4268C17.1211 13.6334 16.8417 13.661 16.6742 13.4936L16.1107 12.93C15.9911 12.8105 15.9679 12.6264 16.0423 12.4746C16.3346 11.8784 16.5 11.2087 16.5 10.5V7.5C16.5 5.01485 14.4851 3.00021 12 3C10.5859 3.00011 9.32421 3.65279 8.49935 4.67307C8.34957 4.85835 8.06907 4.88841 7.9006 4.71994L7.37629 4.19563C7.24568 4.06502 7.22867 3.85789 7.34529 3.71465C8.44538 2.36348 10.1218 1.50011 12 1.5Z"
    fill="currentColor"
  />
</svg>

<svg xmlns="http://www.w3.org/2000/svg" width="24" height="24" fill="none" data-fui-icon="true" viewBox="0 0 24 24"><path fill="currentColor" d="M2.095 2.095a.75.75 0 0 1 1.06 0l18.75 18.75a.75.75 0 0 1-1.06 1.06l-3.136-3.135a.385.385 0 0 0-.48-.049 9.7 9.7 0 0 1-4.133 1.464.386.386 0 0 0-.346.38v.81a.75.75 0 0 1-1.5 0v-.81a.386.386 0 0 0-.346-.38C6.035 19.64 2.25 15.514 2.25 10.5a.75.75 0 0 1 1.5 0 8.25 8.25 0 0 0 12.258 7.21.36.36 0 0 0 .071-.57l-1.12-1.121a.39.39 0 0 0-.442-.073 6 6 0 0 1-8.51-5.137L6 10.5v-3q0-.128.006-.253a.39.39 0 0 0-.111-.292l-3.8-3.8a.75.75 0 0 1 0-1.06M21 9.75a.75.75 0 0 1 .75.75 9.7 9.7 0 0 1-1.815 5.662.363.363 0 0 1-.553.04l-.54-.54a.39.39 0 0 1-.04-.493A8.2 8.2 0 0 0 20.25 10.5a.75.75 0 0 1 .75-.75m-13.5.75a4.5 4.5 0 0 0 5.586 4.367c.263-.065.332-.388.141-.58L8.14 9.202a.375.375 0 0 0-.64.265zm4.5-9a6 6 0 0 1 6 6v3a5.97 5.97 0 0 1-.763 2.927.354.354 0 0 1-.563.067l-.563-.564a.4.4 0 0 1-.069-.455A4.5 4.5 0 0 0 16.5 10.5v-3a4.5 4.5 0 0 0-8-2.827c-.15.185-.43.215-.6.047l-.524-.524a.36.36 0 0 1-.03-.481A5.99 5.99 0 0 1 12 1.5"/></svg>
